!!!OTL: Eoghan c&oacute;ir, S. 155
!!!id: I0555
**kern
*clefG2
*k[b-]
*F:
{16c
16c
=1
8f
8g
8f
8e
8d
8c
=2
4.cc
8dd
8ee
16ff
16ee
=3
8dd
8cc
8b-
4a
16f
16g
=4yy
16f
16e
16f
=5
[2d
8d]
=6
16ffff
16ffff}
{16d
16e
=7
8f
8g
8f
8e
8d
8c
=8
4.cc
8.dd
16ee
16ff
16ee
=9
8dd
8cc
8b-
4a
8g
=10
[2f
8f]}
{8a
=11
8cc
8cc
8a
8cc
8dd
8ee
=12
4.ff
4a
16ff
16ee
=13
8dd
8cc
8b-
4a
16f
16g
=14yy
16f
16e
16f
=15
[2d
8d]}
{16d
16e
=16
8f
8g
8f
8e
8d
8c
=17
4.cc
8.dd
16ee
16ff
16ee
=18
8dd
8cc
8b-
4a
16g
16f
=19
[2f
8f]}
==
*-
!!!minrhy: 16
!!!meters: 6/8 ]  ZZ[4
!!!cut: Eoghan c&oacute;ir, S. 155
!!!reg: Irland
!!!trd: O'SULLIVAN, Donal: Song of the Irish
!!!rhy1: XX  X_X_X_X_X_X_  X__.X_X_XX  X_X_X_X__(XXX)  X___^_
!!!rhy2: XX  X_X_X_X_X_X_  X__.X_.XXX  X_X_X_X__X_  X___^_
!!!key: I0555  16  F 6/8 ]  ZZ[4
!!!mod: HEPTATONIK IONISCH]  AMBITUS[11
!!!kad: -61-61
!!!akz: 1-75663-6-6_1-7566311_55+1363-6-6_1-7566311_
!!!fot: 'a__aw_b__aw_
!!!for: 'a__b__c__d__
!!!fok: 'Ma_Ma_^d_Ma_
!! PHRAS[AUFTAKTIG]
!!!fkt: Ballade?, historisches Lied
!!!bem: weggelassen: Vorhalt - 1. Note, letzte Zeile
!! IRISCHE V
!! PR[31] 2K[11] 2G[25] 3K[0] 3G[0] 4A[4] 4Ü[0] 5A[0] 6K[0] 6G[0]
!! 7K[0] 7G[0] 8A[0] MEHR[0] SI[41] ABS[71] SR[37] SP[4]
!! ST[12] 2k[4] 2g[8] 3k[7] 3g[6] 4d[0] 4ü[0] 5d[1] 6k[0] 6g[0]
!! 7k[1] 7g[0] 8d[0] mehr[0] si[28] dm[+13] sr[13] sp[15]
!! 1F[18] 2F[39] 3F[42] 4F[0] LF[0] 2P[1] 3P[0] 4P[0] TRI[0] DF[4] AB[72]
!! TF[0] U3K[0] U3[0] U4[0] U4Ü[0] U5[6] U6K[0] U6[0] U7K[0] U7[3]
!! N1[24] N2K[0] N2[11] N3K[0] N3[17] N4[15] N4Ü[4] N5[17] N6K[0] N6[4]
!!!n7k: 0] N7[0] O1[0] O2K[0] O2[0] O3K[0] O3[0] HÖ[0
!!!RNB: symbol: &oacute;= o acute  (UTF-8: Ã³)
